resources/svg/zip.svg

<svg xmlns="http://www.w3.org/2000/svg" viewBox="0 0 15 15" fill="currentColor"><path d="M3.2957 11.3787L3.89038 9H5.1096L5.70429 11.3787C5.78318 11.6943 5.5445 12 5.21922 12H3.78077C3.45548 12 3.2168 11.6943 3.2957 11.3787Z" fill="black"/><path d="M10.5 3C10.2239 3 10 3.22386 10 3.5V4H11V3.5C11 3.22386 10.7761 3 10.5 3Z" fill="black"/><path fill-rule="evenodd" clip-rule="evenodd" d="M0 1.5C0 0.671573 0.671573 0 1.5 0H13.5C14.3284 0 15 0.671573 15 1.5V13.5C15 14.3284 14.3284 15 13.5 15H1.5C0.671573 15 0 14.3284 0 13.5V1.5ZM3 3H6V2H3V3ZM3 5H6V4H3V5ZM6 7H3V6H6V7ZM5.89038 8H3.1096L2.32555 11.1362C2.08887 12.0829 2.80491 13 3.78077 13H5.21922C6.19507 13 6.91111 12.0829 6.67443 11.1362L5.89038 8ZM9.26407 10.0592C9.42665 9.97215 9.62392 9.98169 9.77735 10.084L12 11.5657V10H13V12.5C13 12.6844 12.8985 12.8538 12.7359 12.9408C12.5733 13.0278 12.3761 13.0183 12.2226 12.916L10 11.4343V13H9V10.5C9 10.3156 9.10149 10.1462 9.26407 10.0592ZM9 6V9H10V8H12V9H13V6H12V7H10V6H9ZM12 4V3.5C12 2.67157 11.3284 2 10.5 2C9.67157 2 9 2.67157 9 3.5V5H13V4H12Z" fill="black"/></svg>

<svg xmlns="http://www.w3.org/2000/svg" viewBox="0 0 15 15" fill="currentColor"><path d="M3.296 11.379L3.89 9h1.22l.594 2.379A.5.5 0 015.22 12H3.781a.5.5 0 01-.485-.621zM10.5 3a.5.5 0 00-.5.5V4h1v-.5a.5.5 0 00-.5-.5z" fill="currentColor"/><path fill-rule="evenodd" clip-rule="evenodd" d="M0 1.5A1.5 1.5 0 011.5 0h12A1.5 1.5 0 0115 1.5v12a1.5 1.5 0 01-1.5 1.5h-12A1.5 1.5 0 010 13.5v-12zM3 3h3V2H3v1zm0 2h3V4H3v1zm3 2H3V6h3v1zm-.11 1H3.11l-.784 3.136A1.5 1.5 0 003.78 13h1.438a1.5 1.5 0 001.455-1.864L5.89 8zm3.374 2.06a.5.5 0 01.513.024L12 11.566V10h1v2.5a.5.5 0 01-.777.416L10 11.434V13H9v-2.5a.5.5 0 01.264-.44zM9 6v3h1V8h2v1h1V6h-1v1h-2V6H9zm3-2v-.5a1.5 1.5 0 00-3 0V5h4V4h-1z" fill="currentColor"/></svg>
